X: 15877
T: Graf Spee, The
R: reel
M: 4/4
K: Ddorian
EDcD EG G2|AGcG AGcG|EDcD EG G2|AGcG ED D2|
EDcD EG G2|AGcG AGcG|ED D2 EG G2|AGcG ED D2||
e3d cAGE|Gced cA A2|eA A2 dAcA|GEcE ED D2|
e3d cAGE|Gced cA A2|a3g e3d|cAGE ED D2||
egge g3d|eaag a3g|(3efg ed cBcd|e2 ge ed d2|
egge g3d|eaag a3g|(3efg ed cBcd|eage ed d2||
ecde cAGE|Gced cAGE|GAcd ecdc|AGcG ED D2|
ecde cAGE|Gced cAAG|a3g e3d|cAGE EDDG||
(3efg cg (3efg cg|(3fga da (3fga da|(3efg cg (3efg cg|ABcd edde|
g2 ae geed|ecdB cAGE|GAcd ecd(c|c)AGE EDD2||

